X: 46
T:Gan Ainm
M:4/4
L:1/8
S:Dermot Byrne, Donegal (Accordian)
R:Highland
D:Tape of Concert, Teelin, Donegal
Z:Bernie Stocks
K:A
af || eAcA e2 (3agf | eAdc BEGB | eAcA e3a | fdBa (3gfe (3agf | eAcA e2 (3agf |\
eAcA Bcdf | eccB cdea | fdBc defg || a2ea ceA2 | aAce fBB2 | a2ea ceA2 |\
dcBc defg | a2ea ceA2 | aAce fBBe | (3agf (3gfe (3fed (3cBA | (3fga (3gfe fgaf ||
<end>
<start>
